X: 1477
T: Andrew And Meredith's
R: reel
M: 4/4
K: Bminor
|:fBB/B/B g2 fg|afge fbeg|fBB/B/B g2 fg|afge eAA/A/A
fBB/B/B g2 fg|afge fbeg|fBB/B/B g2 fg|afge eAA/A/A:|
|:eAA/A/A ABcA|dDD/D/D FAdf|g2 eg fedf|edcd eAAA|
eAA/A/A ABcA|dDD/D/D FAdf|g2 eg fedf|edcd eAAA:|

